icons/1_Primary/Exact.svg

<svg width="1024" height="1024" fill="none" xmlns="http://www.w3.org/2000/svg"><g clip-path="url(#a)"><path d="M512 1024c282.77 0 512-229.23 512-512S794.77 0 512 0 0 229.23 0 512s229.23 512 512 512Z" fill="#FF837D"/><path d="M242.34 472h-98.92v29.59H256V472h-13.66Zm-1.19 51.09h-97.73v29.59H256v-29.6l-14.85.01ZM639 549h-44.36c-7.4 0-11.79-3.93-11.79-11.1s4.39-11.09 11.79-11.09H639V549Zm-20.55-102.66h-59.2v29.59h57.35c17.54 0 22.28 6.74 22.42 22.19h-45.77c-27 0-41.84 13.87-41.84 39.76 0 25.66 14.79 39.76 41.84 39.76h77.67V497c0-34.22-12.95-50.63-52.47-50.63v-.03ZM784.75 548h-37.21c-20.12 0-27.54-9.66-27.54-36s7.4-36.06 27.51-36.06h42.55v-29.6H744.3c-40.91 0-56.63 20.34-56.63 65.65s15.72 65.65 56.63 65.65h46.23V548h-5.78Zm-405 0h-35c-16.72 0-24.48-5.92-26.63-20.8h69.84v-29.48H318c2-15.42 9.72-21.73 26.75-21.73h52.71v-29.65h-55.98c-40.92 0-56.63 20.34-56.63 65.65s15.71 65.65 56.63 65.65h56.4V548h-18.13Zm495.06 0h-25.68c-6.24 0-9.94-4.39-9.94-12.25v-59.83h38.61v-29.58h-38.61v-25H807.3v116.77c0 27.05 12.71 39.53 39.07 39.53h34.22V548h-5.78Zm-331.32 23.63L496.8 510l43.69-57.66 4.55-6h-37.47l-3.15 4.16-26.35 34.78-26.36-34.78-3.15-4.16h-38.85l48.93 64.58-50.55 66.72h37.46l3.15-4.16 28.66-37.83L506 573.47l3.15 4.16H548l-4.51-6Z" fill="#fff"/></g><defs><clipPath id="a"><path fill="#fff" d="M0 0h1024v1024H0z"/></clipPath></defs></svg>

<svg width="1024" height="1024" viewBox="0 0 1024 1024" fill="none" xmlns="http://www.w3.org/2000/svg">
<g clip-path="url(#clip0_2_2121)">
<path d="M512 1024C794.77 1024 1024 794.77 1024 512C1024 229.23 794.77 0 512 0C229.23 0 0 229.23 0 512C0 794.77 229.23 1024 512 1024Z" fill="#FF837D"/>
<path d="M242.34 472H143.42V501.59H256V472H242.34ZM241.15 523.09H143.42V552.68H256V523.08L241.15 523.09ZM639 549H594.64C587.24 549 582.85 545.07 582.85 537.9C582.85 530.73 587.24 526.81 594.64 526.81H639V549ZM618.45 446.34H559.25V475.93H616.6C634.14 475.93 638.88 482.67 639.02 498.12H593.25C566.25 498.12 551.41 511.99 551.41 537.88C551.41 563.54 566.2 577.64 593.25 577.64H670.92V497C670.92 462.78 657.97 446.37 618.45 446.37V446.34ZM784.75 548H747.54C727.42 548 720 538.34 720 512C720 485.66 727.4 475.94 747.51 475.94H790.06V446.34H744.3C703.39 446.34 687.67 466.68 687.67 511.99C687.67 557.3 703.39 577.64 744.3 577.64H790.53V548H784.76H784.75ZM379.75 548H344.75C328.03 548 320.27 542.08 318.12 527.2H387.96V497.72H318C320 482.3 327.72 475.99 344.75 475.99H397.46V446.34H341.48C300.56 446.34 284.85 466.68 284.85 511.99C284.85 557.3 300.56 577.64 341.48 577.64H397.88V548H379.75ZM874.81 548H849.13C842.89 548 839.19 543.61 839.19 535.75V475.92H877.8V446.34H839.19V421.34H807.3V538.11C807.3 565.16 820.01 577.64 846.37 577.64H880.59V548H874.81ZM543.49 571.63L496.8 510L540.49 452.34L545.04 446.34H507.57L504.42 450.5L478.07 485.28L451.71 450.5L448.56 446.34H409.71L458.64 510.92L408.09 577.64H445.55L448.7 573.48L477.36 535.65L506 573.47L509.15 577.63H548L543.49 571.63Z" fill="white"/>
</g>
<defs>
<clipPath id="clip0_2_2121">
<rect width="1024" height="1024" fill="white"/>
</clipPath>
</defs>
</svg>
